X:1
T:Himno de la Alegría
T:Himno de la Alegría
T:L. van Beethoven
T:Arreglos de David LV
C:David LV
%%score 1 2 3
L:1/8
Q:1/4=80
M:2/4
K:C
V:1 treble nm="Violín" snm="Vln."
V:2 treble nm="Flauta" snm="Fl."
V:3 treble transpose=-2 nm="Clarinete en Si♭" snm="Cl. Si♭"
V:1
 B4 | c2 d2 | d2 c2 | B2 A2 | G2 G2 | A2 B2 | B3 A | A2 z2 | B4 | c2 d2 | d2 c2 | B2 A2 | G2 G2 | %13
 A2 B2 | A3 G | G2 z2 | A4 | B2 G2 | A2 Bc | B2 G2 | A2 Bc | B2 A2 | G2 A2 | d2 z2 | B4 | c2 d2 | %26
 d2 c2 | B2 A2 | G2 G2 | A2 B2 | A3 G | G2 z2 |] %32
V:2
 B4 | c2 d2 | d2 c2 | B2 A2 | G2 G2 | A2 B2 | B3 A | A2 z2 | B4 | c2 d2 | d2 c2 | B2 A2 | G2 G2 | %13
 A2 B2 | A3 G | G2 z2 | A4 | B2 G2 | A2 Bc | B2 G2 | A2 Bc | B2 A2 | G2 A2 | d2 z2 | B4 | c2 d2 | %26
 d2 c2 | B2 A2 | G2 G2 | A2 B2 | A3 G | G2 z2 |] %32
V:3
 A,4 | B,2 ^C2 | ^C2 B,2 | E,2 ^F,^G, | A,2 A,2 | ^G,2 A,2 | A,3 ^G, | ^G,E DB, | A,4 | B,2 ^C2 | %10
 ^C2 B,2 | E,2 ^F,^G, | A,2 A,2 | ^G,2 A,2 | ^G,3 A, | A,2 z2 | ^G,4 | A,2 E,2 | ^G,2 A,B, | %19
 A,2 E,2 | ^G,2 A,B, | A,2 ^G,2 | ^F,2 ^G,2 | E,2 z2 | A,4 | B,2 ^C2 | ^C2 B,2 | E,2 ^F,^G, | %28
 A,2 A,2 | ^G,2 A,2 | E,2 ^G,2 | A,2 z2 |] %32

